public/Php-BjU_0vM1.svg

<svg width="82" height="82" viewBox="0 0 82 82" fill="none" xmlns="http://www.w3.org/2000/svg">
<g clip-path="url(#clip0_9_79845)">
<path d="M43.4027 81.0421L73.6503 52.3697C74.2466 51.8043 74.6245 51.0469 74.7178 50.2306L80.004 3.88875C80.2406 1.81633 78.6196 0 76.5338 0H5.46586C3.38014 0 1.7592 1.81633 1.99559 3.88875L7.28187 50.2306C7.37492 51.0469 7.75289 51.8045 8.34931 52.3697L38.5969 81.0421C39.9443 82.3194 42.0555 82.3194 43.4027 81.0421Z" fill="#F07281"/>
<path d="M76.5335 0H73.3233C75.4092 0 77.03 1.81633 76.7936 3.88875L71.5073 50.2308C71.4142 51.0471 71.0363 51.8045 70.4399 52.3698L40.1923 81.0421C39.9485 81.2732 39.6791 81.4611 39.3945 81.6084C40.6835 82.2761 42.299 82.0881 43.4026 81.0421L73.6502 52.3697C74.2465 51.8045 74.6244 51.0469 74.7176 50.2306L80.0039 3.88859C80.2403 1.81633 78.6194 0 76.5335 0Z" fill="#EB5569"/>
<path d="M13.9841 48.0706L9.50098 8.76968C9.41033 7.97434 10.0322 7.27734 10.8327 7.27734H71.1616C71.9621 7.27734 72.5841 7.97434 72.4933 8.76968L68.0104 48.0706C67.9747 48.3838 67.8296 48.6745 67.6007 48.8914L41.9193 73.2353C41.4023 73.7254 40.5921 73.7254 40.0751 73.2353L14.3938 48.8914C14.1649 48.6745 14.0198 48.3838 13.9841 48.0706Z" fill="#F5F8F9"/>
<path d="M71.1638 7.27734H67.0789C67.8793 7.27734 68.5014 7.97434 68.4106 8.76968L63.9276 48.0706C63.8919 48.3838 63.7468 48.6745 63.518 48.8914L38.957 72.1731L40.0773 73.2351C40.5943 73.7252 41.4045 73.7252 41.9215 73.2351L67.6029 48.8912C67.8318 48.6744 67.9769 48.3837 68.0126 48.0704L72.4955 8.76952C72.5862 7.97418 71.9641 7.27734 71.1638 7.27734Z" fill="#E8EDF2"/>
<path d="M35.529 29.8516C35.1391 29.8516 34.7553 29.6677 34.5145 29.324L31.6459 25.2296C31.3472 24.8033 31.3472 24.2359 31.6459 23.8095L34.5145 19.715C34.9065 19.1555 35.6783 19.0193 36.2379 19.4116C36.7976 19.8039 36.9335 20.5755 36.5414 21.1352L34.1703 24.5198L36.5414 27.9042C36.9335 28.464 36.7976 29.2356 36.2381 29.6278C36.0218 29.7787 35.7742 29.8516 35.529 29.8516Z" fill="#7A8C98"/>
<path d="M46.4748 29.8518C46.2296 29.8518 45.982 29.7791 45.7658 29.6277C45.206 29.2355 45.0702 28.4639 45.4624 27.9041L47.8337 24.5197L45.4624 21.1351C45.0702 20.5754 45.206 19.8038 45.7658 19.4115C46.3257 19.0195 47.0973 19.1553 47.4894 19.7149L50.3579 23.8094C50.6565 24.2358 50.6565 24.8032 50.3579 25.2295L47.4894 29.3239C47.2487 29.6678 46.8646 29.8516 46.4748 29.8518Z" fill="#7A8C98"/>
<path d="M39.1236 29.6553C38.9428 29.6553 38.7592 29.6156 38.5856 29.5314C37.9703 29.2338 37.7129 28.4939 38.0105 27.8786L41.7825 20.0818C42.0799 19.4667 42.8197 19.2087 43.4353 19.5069C44.0505 19.8044 44.308 20.5444 44.0103 21.1597L40.2384 28.9564C40.0248 29.3981 39.5832 29.6553 39.1236 29.6553Z" fill="#7A8C98"/>
<path d="M49.1163 14.9669H32.8819C32.1985 14.9669 31.6445 14.4129 31.6445 13.7296C31.6445 13.0462 32.1985 12.4922 32.8819 12.4922H49.1163C49.7998 12.4922 50.3537 13.0462 50.3537 13.7296C50.3537 14.4129 49.7997 14.9669 49.1163 14.9669Z" fill="#7A8C98"/>
<path d="M40.9991 68.9146C40.3157 68.9146 39.7617 68.3607 39.7617 67.6773V66.2335C39.7617 65.5499 40.3157 64.9961 40.9991 64.9961C41.6826 64.9961 42.2365 65.5501 42.2365 66.2335V67.6773C42.2365 68.3607 41.6825 68.9146 40.9991 68.9146Z" fill="#F07281"/>
<path d="M41 61.7889C63.6437 61.7889 82 55.5262 82 47.8007C82 40.0752 63.6437 33.8125 41 33.8125C18.3563 33.8125 0 40.0752 0 47.8007C0 55.5262 18.3563 61.7889 41 61.7889Z" fill="#F6B2BB"/>
<path d="M41.0027 33.8125C40.0826 33.8125 39.1705 33.8239 38.2656 33.8442C59.6327 34.3248 76.5286 40.3892 76.5286 47.8007C76.5286 55.2123 59.6327 61.2766 38.2656 61.7572C39.1705 61.7775 40.0828 61.7889 41.0027 61.7889C63.6464 61.7889 82.0027 55.5262 82.0027 47.8007C82.0027 40.0753 63.6464 33.8125 41.0027 33.8125Z" fill="#F8A6AF"/>
<path d="M36.7881 54.8012C36.1048 54.8012 35.5508 54.2472 35.5508 53.5639V42.0421C35.5508 41.3585 36.1048 40.8047 36.7881 40.8047C37.4715 40.8047 38.0255 41.3587 38.0255 42.0421V53.5639C38.0257 54.2474 37.4715 54.8012 36.7881 54.8012Z" fill="#7A8C98"/>
<path d="M44.7608 54.8012C44.0773 54.8012 43.5234 54.2472 43.5234 53.5639V42.0421C43.5234 41.3585 44.0774 40.8047 44.7608 40.8047C45.4442 40.8047 45.9982 41.3587 45.9982 42.0421V53.5639C45.9982 54.2474 45.4442 54.8012 44.7608 54.8012Z" fill="#7A8C98"/>
<path d="M44.7614 48.8419H36.7881C36.1048 48.8419 35.5508 48.2879 35.5508 47.6046C35.5508 46.9212 36.1048 46.3672 36.7881 46.3672H44.7614C45.4449 46.3672 45.9987 46.9212 45.9987 47.6046C45.9987 48.2879 45.4448 48.8419 44.7614 48.8419Z" fill="#7A8C98"/>
<path d="M25.9249 54.8012C25.2415 54.8012 24.6875 54.2472 24.6875 53.5639V42.0421C24.6875 41.3585 25.2415 40.8047 25.9249 40.8047C26.6083 40.8047 27.1622 41.3587 27.1622 42.0421V53.5639C27.1622 54.2474 26.6083 54.8012 25.9249 54.8012Z" fill="#7A8C98"/>
<path d="M25.9475 49.797C25.622 49.797 25.3096 49.6687 25.0778 49.44C24.8443 49.2092 24.712 48.8955 24.7099 48.5671C24.7099 48.5671 24.6955 46.201 24.6955 45.2937C24.6955 44.5512 24.6875 42.0464 24.6875 42.0461C24.6864 41.7173 24.8164 41.4016 25.0487 41.1686C25.2809 40.9355 25.5962 40.8047 25.925 40.8047H29.1331C31.6434 40.8047 33.6857 42.8183 33.6857 45.2935C33.6857 47.7688 31.6434 49.7824 29.1331 49.7824C28.2449 49.7824 25.9555 49.7968 25.955 49.7968C25.9526 49.797 25.95 49.797 25.9475 49.797ZM27.1662 43.2797C27.1683 44.0254 27.1706 44.9031 27.1706 45.2937C27.1706 45.7567 27.1744 46.6017 27.1779 47.315C27.87 47.3115 28.6816 47.3078 29.1333 47.3078C30.2595 47.3078 31.211 46.3855 31.211 45.2939C31.211 44.2022 30.2595 43.2799 29.1333 43.2799H27.1662V43.2797Z" fill="#7A8C98"/>
<path d="M49.5499 54.8012C48.8663 54.8012 48.3125 54.2472 48.3125 53.5639V42.0421C48.3125 41.3585 48.8665 40.8047 49.5499 40.8047C50.2333 40.8047 50.7872 41.3587 50.7872 42.0421V53.5639C50.7872 54.2474 50.2334 54.8012 49.5499 54.8012Z" fill="#7A8C98"/>
<path d="M49.5723 49.797C49.2469 49.797 48.9344 49.6687 48.7026 49.44C48.4691 49.2092 48.3369 48.8955 48.3348 48.5671C48.3348 48.5671 48.3204 46.201 48.3204 45.2937C48.3204 44.5512 48.3125 42.0461 48.3125 42.0461C48.3115 41.7173 48.4414 41.4014 48.6737 41.1686C48.9059 40.9355 49.2212 40.8047 49.55 40.8047H52.7581C55.2684 40.8047 57.3107 42.8183 57.3107 45.2935C57.3107 47.7688 55.2686 49.7824 52.7581 49.7824C51.8699 49.7824 49.5805 49.7968 49.58 49.7968C49.5774 49.797 49.5749 49.797 49.5723 49.797ZM50.7911 43.2797C50.793 44.0254 50.7952 44.9031 50.7952 45.2937C50.7952 45.7567 50.7989 46.6017 50.8026 47.315C51.4948 47.3115 52.3065 47.3078 52.758 47.3078C53.8842 47.3078 54.8357 46.3855 54.8357 45.2939C54.8357 44.2022 53.8842 43.2799 52.758 43.2799H50.7911V43.2797Z" fill="#7A8C98"/>
<path d="M13.5643 49.0411H11.2296C10.5462 49.0411 9.99219 48.4872 9.99219 47.8038C9.99219 47.1202 10.5462 46.5664 11.2296 46.5664H13.5642C14.2475 46.5664 14.8015 47.1204 14.8015 47.8038C14.8017 48.4873 14.2477 49.0411 13.5643 49.0411Z" fill="#F07281"/>
<path d="M70.7712 49.0411H68.4366C67.753 49.0411 67.1992 48.4872 67.1992 47.8038C67.1992 47.1202 67.7532 46.5664 68.4366 46.5664H70.7712C71.4547 46.5664 72.0085 47.1204 72.0085 47.8038C72.0085 48.4873 71.4547 49.0411 70.7712 49.0411Z" fill="#F07281"/>
</g>
<defs>
<clipPath id="clip0_9_79845">
<rect width="82" height="82" fill="white"/>
</clipPath>
</defs>
</svg>

<svg xmlns="http://www.w3.org/2000/svg" width="82" height="82" fill="none" viewBox="0 0 82 82"><g clip-path="url(#a)"><path fill="#f07281" d="M43.403 81.042 73.65 52.37a3.5 3.5 0 0 0 1.068-2.14L80.004 3.89A3.493 3.493 0 0 0 76.534 0H5.466a3.493 3.493 0 0 0-3.47 3.889L7.282 50.23a3.5 3.5 0 0 0 1.067 2.139l30.248 28.672a3.493 3.493 0 0 0 4.806 0"/><path fill="#eb5569" d="M76.534 0h-3.21a3.493 3.493 0 0 1 3.47 3.889L71.507 50.23a3.5 3.5 0 0 1-1.067 2.139L40.192 81.042a3.5 3.5 0 0 1-.797.566 3.49 3.49 0 0 0 4.008-.566L73.65 52.37a3.5 3.5 0 0 0 1.068-2.14L80.004 3.89A3.493 3.493 0 0 0 76.534 0"/><path fill="#f5f8f9" d="M13.984 48.07 9.501 8.77a1.34 1.34 0 0 1 1.332-1.493h60.329c.8 0 1.422.697 1.331 1.493l-4.483 39.3a1.34 1.34 0 0 1-.41.821L41.92 73.235a1.34 1.34 0 0 1-1.845 0L14.394 48.891a1.34 1.34 0 0 1-.41-.82"/><path fill="#e8edf2" d="M71.164 7.277h-4.085c.8 0 1.422.697 1.332 1.493l-4.483 39.3a1.34 1.34 0 0 1-.41.821L38.957 72.173l1.12 1.062a1.34 1.34 0 0 0 1.845 0l25.68-24.344a1.34 1.34 0 0 0 .41-.82L72.497 8.77a1.34 1.34 0 0 0-1.332-1.493"/><path fill="#7a8c98" d="M35.529 29.852c-.39 0-.774-.184-1.015-.528l-2.868-4.094a1.24 1.24 0 0 1 0-1.42l2.868-4.095a1.237 1.237 0 1 1 2.027 1.42l-2.37 3.385 2.37 3.384a1.238 1.238 0 0 1-1.012 1.948M46.475 29.852a1.237 1.237 0 0 1-1.012-1.948l2.37-3.384-2.37-3.385a1.237 1.237 0 1 1 2.026-1.42l2.869 4.094c.299.427.299.994 0 1.42l-2.869 4.095c-.24.344-.624.528-1.014.528M39.124 29.655a1.237 1.237 0 0 1-1.113-1.777l3.772-7.796a1.237 1.237 0 1 1 2.227 1.078l-3.772 7.796a1.24 1.24 0 0 1-1.114.7M49.116 14.967H32.882a1.237 1.237 0 1 1 0-2.475h16.234a1.237 1.237 0 1 1 0 2.475"/><path fill="#f07281" d="M41 68.915a1.237 1.237 0 0 1-1.238-1.238v-1.444a1.237 1.237 0 1 1 2.474 0v1.444c0 .684-.553 1.238-1.237 1.238"/><path fill="#f6b2bb" d="M41 61.789c22.644 0 41-6.263 41-13.988 0-7.726-18.356-13.989-41-13.989S0 40.076 0 47.802c0 7.725 18.356 13.988 41 13.988"/><path fill="#f8a6af" d="M41.003 33.813q-1.38 0-2.737.031c21.367.48 38.263 6.545 38.263 13.957 0 7.411-16.896 13.476-38.263 13.956a122 122 0 0 0 2.737.032c22.643 0 41-6.263 41-13.988 0-7.726-18.357-13.989-41-13.989"/><path fill="#7a8c98" d="M36.788 54.801a1.237 1.237 0 0 1-1.237-1.237V42.042a1.237 1.237 0 1 1 2.474 0v11.522c0 .683-.553 1.237-1.237 1.237M44.76 54.801a1.237 1.237 0 0 1-1.237-1.237V42.042a1.237 1.237 0 1 1 2.475 0v11.522c0 .683-.554 1.237-1.237 1.237"/><path fill="#7a8c98" d="M44.761 48.842h-7.973a1.237 1.237 0 0 1 0-2.475h7.973a1.237 1.237 0 1 1 0 2.475M25.925 54.801a1.237 1.237 0 0 1-1.238-1.237V42.042a1.237 1.237 0 1 1 2.475 0v11.522c0 .683-.554 1.237-1.237 1.237"/><path fill="#7a8c98" d="M25.948 49.797a1.24 1.24 0 0 1-1.238-1.23s-.015-2.366-.015-3.273c0-.743-.008-3.248-.008-3.248a1.237 1.237 0 0 1 1.238-1.241h3.208c2.51 0 4.553 2.013 4.553 4.489s-2.043 4.488-4.553 4.488c-.888 0-3.177.015-3.178.015zm1.218-6.517.005 2.014c0 .463.003 1.308.007 2.021.692-.003 1.504-.007 1.955-.007 1.127 0 2.078-.922 2.078-2.014s-.951-2.014-2.078-2.014zM49.55 54.801a1.237 1.237 0 0 1-1.237-1.237V42.042a1.237 1.237 0 1 1 2.474 0v11.522c0 .683-.554 1.237-1.237 1.237"/><path fill="#7a8c98" d="M49.572 49.797a1.24 1.24 0 0 1-1.237-1.23s-.015-2.366-.015-3.273c0-.743-.008-3.248-.008-3.248a1.237 1.237 0 0 1 1.238-1.241h3.208c2.51 0 4.553 2.013 4.553 4.489s-2.042 4.488-4.553 4.488c-.888 0-3.178.015-3.178.015zm1.22-6.517.003 2.014c0 .463.004 1.308.008 2.021.692-.003 1.504-.007 1.955-.007 1.126 0 2.078-.922 2.078-2.014s-.952-2.014-2.078-2.014z"/><path fill="#f07281" d="M13.564 49.041H11.23a1.237 1.237 0 1 1 0-2.475h2.334a1.237 1.237 0 0 1 0 2.475M70.771 49.041h-2.334a1.237 1.237 0 1 1 0-2.475h2.334a1.237 1.237 0 1 1 0 2.475"/></g><defs><clipPath id="a"><path fill="#fff" d="M0 0h82v82H0z"/></clipPath></defs></svg>
